X:81
T:Green Cottage (polka), The  
F:file ID: jol/081green_c
Z:bill@capeirish.com
B:JOL.236
Q:120
L:1/8
M:2/4
R:polka
K:Em
D|GA/G/ ED|B,E E>F|GE ED|GA B/c/B/A/|
GE F/E/D|B,E EG/A/|BA GF|E2 E :|
|:B/d/|e2 ef|eB c/B/A|B>e df|e2 e>f|
gf/g/ fe/f/|ed BA|BA/B/ E/F/G/A/|1B2A :|\
[2"last time"B2G2|HE4||

